X:1
T:T
T:On nous dit que dans le mariage / Du souterain
T:Lied / HS.81.Vanpelt.292
T:Een speelmansboek uit Maastricht/Tongeren (1786-1824) 
T:BRON: Lusthof-der-muziek.blogspot.com: Handschrift van VanPelt (1786-1824)  / Transcriptie door Ad Kwakernaat (2015) 
T:Naar een origineel van Dalayrac Nicolas (1753-1809) 
T:Genoteerd door Van der Elst Johan
Z:Een speelmansboek uit Maastricht/Tongeren (1786-1824)
Z:Genoteerd door Van der Elst Johan
L:1/8
Q:1/4=100
M:2/4
K:Bb
V:1 treble nm="Viool" snm="Vl."
V:1
 D2 G2 | B4 | dc BA | AG G z | G2 ^FG | A2 A2 | B2 d2 |{B} A2 z2 | D2 G2 | B4 | dc BA | AG G2 | %12
 A2 BA | A3 G | F2 E2 | D2 z2 | A2 z2 | B2 z2 | d2 cB | A2 z2 | A2 z2 | B2 z2 | d2 cB | %23
{!fermata!B} !fermata!A2 z2 | %24
"_BRON: Alamire uitgave \"Speelmansboek uit Maastricht\"\n vermeldt bij concordatie:\n              + HS.81.Vanpelt.292 = HS.81.Vanpelt.237\n              + Dalayrac Nicolas (1753-1809), \nCamille, ou le souterrain \n(1791)\n              + La Clé du Caveau (Paris, 4de ed., 1848): 429\n" D2 G2 | %25
 B4 | dc BA | AG G2 | G2 ^FG | A2 z2 | GB Bd | dc BA | G2 A2 | G2 z2 |] %34

